X:1
T:The Lord, the only God, is great
T:John Broderip (of Wells)
T:p34, A Second Book of New Anthems and Psalm Tunes, London: [1749] 
T:Edition released into the public domain, April 2010. As such, it may be freely copied and performed.
T:The Lord, the only God, is great
T:Psalm 48th, new Version
C:John Broderip
C:(of Wells)
Z:p34, A Second Book of New
Z:Anthems and Psalm Tunes,
Z:London: [1749]
Z:
%%score [ 1 2 3 4 ]
L:1/8
M:3/2
K:G
V:1 treble nm="Treble" snm="Tr."
V:2 treble nm="Alto" snm="A."
V:3 treble-8 transpose=-12 nm="Tenor" snm="T."
V:4 bass nm="Bass" snm="B."
V:1
 G4 | G8 c4 | B8 A4 | G8 e4 | d8 d4 | e8 (d2 c2) | B8 A4 | B8 ^G4 | ^G8 A4 | (A4 B4) c4 | %10
w: God|in her|pa- la-|ces is|known; His|pre- sence _|is her|guard: Con-|fed- ’rate|kings _ with-|
w: The|Lord, the|on- ly|God, is|great, And|great- ly _|to be|praised In|Si- on,|on _ whose|
w: Her|tow’rs, the|joy of|all the|earth, With|beau- teous _|pro- spect|rise; On|her north|side _ th’Al-|
 (A4 B4) c4 | (B2 c2 d4) e4 | F8 G4 | (c4 B4) A4 | G8 |] %15
w: drew _ their|siege, _ _ And|of suc-|cess _ de-|spair’d.|
w: hap- * py|mount _ _ His|sac- red|throne _ is|raised.|
w: migh- * ty|King’s _ _ Im-|pe- rial|ci- * ty|lies.|
V:2
 D4 | E8 (E2 F2) | G8 F4 | E8 G4 | D8 B,4 | E8 F4 | (G4 B,4) E4 | ^D8 E4 | E8 E4 | (F4 ^G4) A4 | %10
w: God|in her _|pa- la-|ces is|known; His|pre- sence|is _ her|guard: Con-|fed- ’rate|kings _ with-|
w: The|Lord, the _|on- ly|God, is|great, And|great- ly|to _ be|praised In|Si- on,|on _ whose|
w: Her|tow’rs, the _|joy of|all the|earth, With|beau- teous|pro- * spect|rise; On|her north|side _ th’Al-|
 D8 (E2 F2) | G8 G4 | F8 E4 | E4 D8 | B,8 |] %15
w: drew their _|siege, And|of suc-|cess de-|spair’d.|
w: hap- py _|mount His|sac- red|throne is|raised.|
w: migh- ty _|King’s Im-|pe- rial|ci- ty|lies.|
V:3
 B4 | c8 A4 | B8 d4 | G8 c4 | B8 B4 | (c6 B2) A4 | (G4 F4) E4 | B8 B4 | B8 c4 | (c4 d4) e4 | %10
w: God|in her|pa- la-|ces is|known; His|pre- * sence|is _ her|guard: Con-|fed- ’rate|kings _ with-|
w: The|Lord, the|on- ly|God, is|great, And|great- * ly|to _ be|praised In|Si- on,|on _ whose|
w: Her|tow’rs, the|joy of|all the|earth, With|beau- * teous|pro- * spect|rise; On|her north|side _ th’Al-|
 (d4 G4) A4 | B8 c4 | A8 G4 | (A4 G4) F4 | G8 |] %15
w: drew _ their|siege, And|of suc-|cess _ de-|spair’d.|
w: hap- * py|mount His|sac- red|throne _ is|raised.|
w: migh- * ty|King’s Im-|pe- rial|ci- * ty|lies.|
V:4
 G,,4 | (C,4 B,,4) A,,4 | G,,8 D,4 | (E,4 D,4) C,4 | G,8 G,4 | C,8 D,4 | (E,4 D,4) C,4 | B,,8 E,4 | %8
w: God|in _ her|pa- la-|ces _ is|known; His|pre- sence|is _ her|guard: Con-|
w: The|Lord, _ the|on- ly|God, _ is|great, And|great- ly|to _ be|praised In|
w: Her|tow’rs, _ the|joy of|all _ the|earth, With|beau- teous|pro- * spect|rise; On|
"^Emendations: Clefs in the source are treble, alto, tenor and bass. The first verse only of the text is given in the source:verses 2, 3-4 (combined into one verse in the New Version metrical text) and 8 have been added editorially." (E,4 D,4) C,4 | %9
w: fed- * ’rate|
w: Si- * on,|
w: her _ north|
 (C,4 B,,4) A,,4 | (D,2 C,2 B,,4) A,,4 | G,,8 C,4 | D,8 E,4 | A,,4 D,8 | G,,8 |] %15
w: kings _ with-|drew _ _ their|siege, And|of suc-|cess de-|spair’d.|
w: on _ whose|hap- * * py|mount His|sac- red|throne is|raised.|
w: side _ th’Al-|migh- * * ty|King’s Im-|pe- rial|ci- ty|lies.|

